dist/svg/static/electric-range-small.svg

<svg xmlns="http://www.w3.org/2000/svg" width="24" height="24" viewBox="0 0 24 24"><g fill="none" stroke="currentColor" stroke-miterlimit="10"><path d="M15 10.5h1.5c.512 0 1 .488 1 1v5c0 .55.45 1 1 1h1c.55 0 1-.45 1-1v-8M22.5 6s.14 2.5-2 2.5-2-2.5-2-2.5V4.5h4V6zM19.5 2v2.5M21.5 2v2.5M9.5 5.5l-4 6h5l-5 6"/><path d="M5.5 14.5v3h3"/><path d="M13.5 19V3.5a1 1 0 0 0-1-1h-9a1 1 0 0 0-1 1v18M7 21.5H1"/><g><path d="M23.498 21.5H9.502M9.5 19v5-5zM23.5 19v5-5z"/></g></g></svg>

<?xml version="1.0" encoding="UTF-8" standalone="no"?>
<svg width="24px" height="24px" viewBox="0 0 24 24" version="1.1" xmlns="http://www.w3.org/2000/svg" xmlns:xlink="http://www.w3.org/1999/xlink">
    <!-- Generator: sketchtool 46.2 (44496) - http://www.bohemiancoding.com/sketch -->
    <title>electric-range-small</title>
    <desc>Created with sketchtool.</desc>
    <defs></defs>
    <g id="icons-published" stroke="none" stroke-width="1" fill="none" fill-rule="evenodd">
        <g id="briefing" transform="translate(-1796.000000, -538.000000)"></g>
        <g id="electric-range-small" stroke="#000000">
            <path d="M15,10.5 L16.5,10.5 C17,10.5 17.5,11 17.5,11.5 L17.5,16.5 C17.5,17 18,17.5 18.5,17.5 L19.5,17.5 C20,17.5 20.5,17 20.5,16.5 L20.5,8.5 M19.5,2 L19.5,4.5 M21.5,2 L21.5,4.5" id="Shape"></path>
            <path d="M22.5,6 C22.5,6 22.6,8.5 20.5,8.5 C18.4,8.5 18.5,6 18.5,6 L18.5,4.5 L22.5,4.5 L22.5,6 Z" id="Path"></path>
            <polyline id="Path" points="9.5 5.5 5.5 11.5 10.5 11.5 5.5 17.5"></polyline>
            <polyline id="Shape" points="5.5 14.5 5.5 17.5 8.5 17.5"></polyline>
            <path d="M13.5,19 L13.5,3.5 C13.5,2.9 13.1,2.5 12.5,2.5 L3.5,2.5 C2.9,2.5 2.5,2.9 2.5,3.5 L2.5,21.5 M7,21.5 L1,21.5" id="Shape"></path>
            <path d="M23.5,21.5 L9.5,21.5 L23.5,21.5 Z M9.5,19 L9.5,24 L9.5,19 Z M23.5,19 L23.5,24 L23.5,19 Z" id="Shape"></path>
        </g>
    </g>
</svg>
